X: 7
T: Denis Delaney
C: anon.
O: Ireland
B: Francis O'Neill: "The Dance Music of Ireland" (1907) no. 7
R: Double jig
Z: Transcribed by Frank Nordberg - http://www.musicaviva.com
F: http://www.musicaviva.com/abc/tunes/ireland/oneill-1001/oneill-1001-000
7.abc
M: 6/8
L: 1/8
Q: 3/8=128
K: G
(d/c/)|BAG GBG|GBG A>Bc|BAG GBG|{d}cAF Adc|\
BAG GBG|GBG A>Bc|BAG dBG|cAF G2:|
c|Bcd def|gfe fed|dBG gdB|cAF Adc|Bcd def|gfe fed|dBG gdB| cAF G2:|
(B/c/)|dBG dBG|dBG ABc|dBG dBG|cAF A2 d/c/|\
Bcd def|gfe fed|dBG gdB|cAFG2:|
W:
W:
W: From Musica Viva - http://www.musicaviva.com
W: the Internet center for free sheet music downloads.


